fs/align_center_horizontal_28_regular.svg

<svg viewBox="0 0 28 28" fill="none" xmlns="http://www.w3.org/2000/svg" height="1em" width="1em">
  <path d="M26 13.75C26 14.1642 25.6642 14.5 25.25 14.5H23V18C23 19.5188 21.7688 20.75 20.25 20.75H17.75C16.2312 20.75 15 19.5188 15 18V14.5H13V20.75C13 22.2688 11.7688 23.5 10.25 23.5H7.75C6.23122 23.5 5 22.2688 5 20.75V14.5H2.75C2.33579 14.5 2 14.1642 2 13.75C2 13.3358 2.33579 13 2.75 13H5V7.25C5 5.73122 6.23122 4.5 7.75 4.5H10.25C11.7688 4.5 13 5.73122 13 7.25V13H15V10C15 8.48122 16.2312 7.25 17.75 7.25H20.25C21.7688 7.25 23 8.48122 23 10V13H25.25C25.6642 13 26 13.3358 26 13.75ZM21.5 10C21.5 9.30964 20.9404 8.75 20.25 8.75L17.75 8.75C17.0596 8.75 16.5 9.30964 16.5 10L16.5 18C16.5 18.6904 17.0596 19.25 17.75 19.25H20.25C20.9404 19.25 21.5 18.6904 21.5 18V10ZM10.25 6L7.75 6C7.05964 6 6.5 6.55964 6.5 7.25V20.75C6.5 21.4404 7.05964 22 7.75 22H10.25C10.9404 22 11.5 21.4404 11.5 20.75L11.5 7.25C11.5 6.55964 10.9404 6 10.25 6Z" fill="#212121"/>
</svg>

<svg viewBox="0 0 28 28" fill="none" xmlns="http://www.w3.org/2000/svg" height="1em" width="1em">
  <path d="M26 13.75a.75.75 0 0 1-.75.75H23V18a2.75 2.75 0 0 1-2.75 2.75h-2.5A2.75 2.75 0 0 1 15 18v-3.5h-2v6.25a2.75 2.75 0 0 1-2.75 2.75h-2.5A2.75 2.75 0 0 1 5 20.75V14.5H2.75a.75.75 0 0 1 0-1.5H5V7.25A2.75 2.75 0 0 1 7.75 4.5h2.5A2.75 2.75 0 0 1 13 7.25V13h2v-3a2.75 2.75 0 0 1 2.75-2.75h2.5A2.75 2.75 0 0 1 23 10v3h2.25a.75.75 0 0 1 .75.75ZM21.5 10c0-.69-.56-1.25-1.25-1.25h-2.5c-.69 0-1.25.56-1.25 1.25v8c0 .69.56 1.25 1.25 1.25h2.5c.69 0 1.25-.56 1.25-1.25v-8ZM10.25 6h-2.5c-.69 0-1.25.56-1.25 1.25v13.5c0 .69.56 1.25 1.25 1.25h2.5c.69 0 1.25-.56 1.25-1.25V7.25c0-.69-.56-1.25-1.25-1.25Z" fill="#212121"/>
</svg>
